!!!COM: Gomółka, Mikołaj
!!!CDT: ~1535-after 1591
!!!OTL@POL: Czemuś, Panie, odstąpił
!!!OTL@LAT: Ut quid, Domine, recessisti
!!!AGn: Motet; Psalm
!!!SCn: Gom2010
!!!SCn: Gom2010
!!!voices: 4
**kern	**kern	**kern	**kern
*staff4	*staff3	*staff2	*staff1
*Ivox	*Ivox	*Ivox	*Ivox
*I"Bassus	*I"Tenor	*I"Altus	*I"Cantus
*I'B	*I'T	*I'A	*I'C
*clefF4	*clefGv2	*clefGv2	*clefG2
*k[b-]	*k[b-]	*k[b-]	*k[b-]
*M2/1	*M2/1	*M2/1	*M2/1
*met(C|)	*met(C|)	*met(C|)	*met(C|)
=1-	=1-	=1-	=1-
1D	1D	1A	1d
2D	2F	2.d	2a
2GG	2G	.	2b-
.	.	4e	.
=2	=2	=2	=2
2D	2A	2f	2a
2C	2A	2e	2cc
2D	2f	2d	2b-
2E	4e	4c	4a
.	4d	4B-	4g
=3	=3	=3	=3
2F	2c	2A	2a
2D	2f	2a	2dd
2A	2e	2a	2cc#
2B-	2d	2f	2dd
=4	=4	=4	=4
1G	1d	2g	1b-
.	.	2G	.
2F	2d	2A	2a
2G	[2d	2B-	[2g
=5	=5	=5	=5
1E-	2d]	1G	2g]
.	2c#	.	4f#
.	.	.	4e
2D	2d	2A	2f#
2AA	2e	2c#	2a
=6	=6	=6	=6
2D	2f	2d	2a
2GG	2d	4g	2b-
.	.	4f	.
2AA	2c	4e	2a
.	.	8dL	.
.	.	8eJ	.
2FF	2A	4f	2cc
.	.	4e	.
=7	=7	=7	=7
2GG	4B-	4d	2b-
.	4c	4e	.
1D	1d	1f	2.a
.	.	.	4g
2E-	2B-	2e-	[2g
=8	=8	=8	=8
2C	2c	2e-i	2g]
2D	2A	4d	2f#i
.	.	4c	.
1GG	1Bn	4d	1g
.	.	4c	.
.	.	4d	.
.	.	4eni	.
=9	=9	=9	=9
2D	2d	4f	1a
.	.	4e	.
1F	2c	4f	.
.	.	4g	.
.	2f	2a	2cc
2G	2d	4g	2b-
.	.	4f	.
=10	=10	=10	=10
2A	2c	2e	2a
2F	4f	1a	2cc
.	4e	.	.
1B-	4d	.	1dd
.	4c	.	.
.	2d	2g	.
=11	=11	=11	=11
2A	2e	2a	2cc#
2D	2f	2a	2dd
2G	4B-	2g	2b-
.	4c	.	.
2F	[2d	2d	[2a
=12	=12	=12	=12
2D	2d]	2f	2a]
2E	4c	4e	2g
.	4B-	4d	.
2.F	1A	1c	1a
4E	.	.	.
=13	=13	=13	=13
2.D	1d	2.f	1a
4C	.	4e	.
1BB-	2.d	2d	2.b-
.	.	2d	.
.	4c	.	4a
=14	=14	=14	=14
2E-i	2B-	2d	4g
.	.	.	4f
2E-	4A	2c	2g
.	4G	.	.
2D	2A	2d	2f#
2F	2A	2c	2a
=15	=15	=15	=15
2C	4G	2e-	2cc
.	4A	.	.
1G	4B-	2d	1b-
.	4c	.	.
.	2d	4B-	.
.	.	4c	.
2F	2A	2d	2a
=16	=16	=16	=16
2E-i	2B-	2e-	2g
2C	4c	2e-	1g
.	4B-	.	.
1D	4A	2.d	.
.	4G	.	.
.	2A	.	2f#
.	.	4c	.
=17	=17	=17	=17
0GG	0G	0Bni	0g
==	==	==	==
*-	*-	*-	*-
!!!CNT: Polish
!!!OCY: Poland
!!!LYR: Jan Kochanowski (1530-1584/08/22)
!!!GTL: Melodiae na Psałterz Polski
!!!EFL: 10/150
!!!PPR: Łazarz Andrysowicz
!!!PPP: Kraków
!!!PDT: 1580
!!!YEC: 2015 Marcin Konik
!!!ENC: Marcin Konik
!!!END: 2015/03/06
!!!EED: Marcin Konik
!!!EEV: 2015/03/06
!!!ONB: Translated from MusicXML and edited on 2015/03/06 by Marcin Konik
!!!CharacterEncoding: utf-8
!!muse2ps: i2I150v85,85,85,150Q16
!!title: @{OTL}, @{GTL}, ed. @{ENC}
